X:49
T:Soulgers Joy
O:No 49 Wm Clarke MS  Feltwell, Norfolk
N:Key sig added (none in MS)
N:In bars marked * MS consistently has A instead of G
N:Bars 6 and 10: semi qvr in MS
N:Bar 13: Starts with a cr and ends in qvr in MS
I:abc2nwc
M:4/4
L:1/8
K:G
Bc|dB"^*"GB dB"^*"GB|d2g2g2fe|dB"^*"GB dB"^*"GB"^*"|
c2A2A2Bc|dBGB dBGB|"_*"d2g2g2c'c'|d'bgb c'afa|g2g2g2||
ga|"_*"b2b2bd'c'b|agfg abc'a|b2b2"^*"bd'c'b|"_*"agfe d2||
ga|b2b2bd'c'b|agfg abc'a|d'bgb c'afa|g2g2g2||

